assets/icons/nose.svg

<svg width="24" height="24" viewBox="0 0 24 24" fill="none" xmlns="http://www.w3.org/2000/svg">
<path fill-rule="evenodd" clip-rule="evenodd" d="M14.104 5.75502V5.79502L14.108 5.91702C14.1287 6.59635 14.1687 7.27496 14.228 7.95202C14.339 9.22602 14.55 10.819 14.943 12.141C15.352 13.519 15.929 14.057 16.405 14.443C16.447 14.477 16.491 14.513 16.537 14.548C16.74 14.708 16.963 14.885 17.13 15.092C17.36 15.376 17.491 15.718 17.491 16.185C17.491 16.665 17.281 17.059 17.005 17.367C16.732 17.67 16.381 17.905 16.052 18.08C15.6432 18.296 15.2115 18.4657 14.765 18.586L14.741 18.593L14.734 18.594H14.732V18.595L14.638 18.217L14.731 18.595C14.628 18.6203 14.5191 18.6037 14.4283 18.5488C14.3376 18.4938 14.2723 18.4051 14.247 18.302C14.2217 18.199 14.2383 18.0901 14.2933 17.9993C14.3482 17.9086 14.437 17.8433 14.54 17.818H14.544L14.561 17.813C14.576 17.809 14.6 17.803 14.631 17.793C14.9926 17.6903 15.3424 17.5502 15.675 17.375C15.96 17.223 16.223 17.04 16.41 16.832C16.594 16.627 16.692 16.414 16.692 16.185C16.692 15.892 16.616 15.73 16.507 15.595C16.402 15.464 16.267 15.357 16.073 15.202L15.902 15.065C15.33 14.602 14.641 13.935 14.176 12.368C13.76 10.969 13.544 9.31402 13.43 8.02202C13.366 7.28645 13.3243 6.54911 13.305 5.81102V5.76602L13.705 5.76002L13.305 5.76502C13.3037 5.65893 13.3446 5.55666 13.4186 5.48071C13.4927 5.40476 13.5939 5.36134 13.7 5.36002C13.8061 5.35869 13.9084 5.39956 13.9843 5.47364C14.0603 5.54772 14.1037 5.64893 14.105 5.75502H14.104ZM9.70701 5.75502V5.79502C9.70366 5.98845 9.697 6.18181 9.68701 6.37502C9.67101 6.76602 9.64001 7.31702 9.58401 7.95202C9.47201 9.22602 9.26101 10.819 8.86901 12.141C8.45901 13.519 7.88301 14.057 7.40601 14.443L7.27501 14.548C7.07201 14.708 6.84801 14.885 6.68101 15.092C6.45201 15.376 6.32001 15.718 6.32001 16.185C6.32001 16.665 6.53001 17.059 6.80601 17.367C7.07901 17.67 7.43101 17.905 7.76001 18.08C8.16853 18.296 8.59987 18.4657 9.04601 18.586L9.07001 18.593L9.07701 18.594H9.07901L9.08001 18.595L9.17401 18.217L9.08001 18.595C9.18304 18.6205 9.29197 18.604 9.38284 18.5491C9.4737 18.4943 9.53905 18.4056 9.56451 18.3025C9.58997 18.1995 9.57345 18.0905 9.5186 17.9997C9.46375 17.9088 9.37504 17.8435 9.27201 17.818H9.26801L9.25101 17.813C9.13996 17.7829 9.0299 17.7492 8.92101 17.712C8.65122 17.6205 8.38907 17.5078 8.13701 17.375C7.85201 17.223 7.58901 17.04 7.40101 16.832C7.21701 16.627 7.12001 16.414 7.12001 16.185C7.12001 15.892 7.19501 15.73 7.30401 15.595C7.41001 15.464 7.54401 15.357 7.73901 15.202L7.91001 15.065C8.48101 14.602 9.17001 13.935 9.63601 12.368C10.051 10.969 10.268 9.31402 10.381 8.02202C10.4453 7.28646 10.4873 6.54912 10.507 5.81102V5.76602L10.107 5.76002L10.507 5.76502C10.5083 5.65893 10.4675 5.55666 10.3934 5.48071C10.3193 5.40476 10.2181 5.36134 10.112 5.36002C10.0059 5.35869 9.90365 5.39956 9.8277 5.47364C9.75175 5.54772 9.70833 5.64893 9.70701 5.75502Z" fill="#485FC7"/>
<path fill-rule="evenodd" clip-rule="evenodd" d="M8.18302 16.111C8.18302 15.891 8.36202 15.711 8.58302 15.711C9.56302 15.711 10.073 16.221 10.483 16.631L10.495 16.643C10.898 17.047 11.203 17.341 11.842 17.341C12.492 17.341 12.857 17.034 13.286 16.634L13.353 16.571C13.758 16.191 14.268 15.711 15.101 15.711C15.2071 15.711 15.3089 15.7531 15.3839 15.8281C15.4589 15.9032 15.501 16.0049 15.501 16.111C15.501 16.2171 15.4589 16.3188 15.3839 16.3938C15.3089 16.4688 15.2071 16.511 15.101 16.511C14.589 16.511 14.295 16.787 13.845 17.207L13.832 17.219C13.387 17.634 12.822 18.141 11.842 18.141C10.862 18.141 10.352 17.631 9.94202 17.221L9.92902 17.209C9.52602 16.806 9.22202 16.511 8.58302 16.511C8.47694 16.511 8.3752 16.4688 8.30018 16.3938C8.22517 16.3188 8.18302 16.2171 8.18302 16.111ZM7.38902 11C7.42621 10.9628 7.45572 10.9187 7.47585 10.8702C7.49598 10.8216 7.50634 10.7696 7.50634 10.717C7.50634 10.6644 7.49598 10.6124 7.47585 10.5638C7.45572 10.5153 7.42621 10.4711 7.38902 10.434L6.03002 9.07499C5.99286 9.03782 5.94874 9.00834 5.90018 8.98823C5.85163 8.96812 5.79958 8.95776 5.74702 8.95776C5.69447 8.95776 5.64242 8.96812 5.59387 8.98823C5.54531 9.00834 5.50119 9.03782 5.46402 9.07499C5.42686 9.11215 5.39738 9.15627 5.37727 9.20483C5.35715 9.25338 5.3468 9.30543 5.3468 9.35799C5.3468 9.41054 5.35715 9.46259 5.37727 9.51114C5.39738 9.5597 5.42686 9.60382 5.46402 9.64099L6.53902 10.715L5.46402 11.79C5.38897 11.865 5.3468 11.9668 5.3468 12.073C5.3468 12.1791 5.38897 12.2809 5.46402 12.356C5.53908 12.431 5.64088 12.4732 5.74702 12.4732C5.85317 12.4732 5.95497 12.431 6.03002 12.356L7.38802 10.998L7.38902 11Z" fill="#485FC7"/>
<path fill-rule="evenodd" clip-rule="evenodd" d="M7.10198 10.716C7.10198 10.6634 7.09163 10.6114 7.07153 10.5629C7.05143 10.5144 7.02196 10.4703 6.98482 10.4331C6.94768 10.396 6.90358 10.3665 6.85505 10.3464C6.80652 10.3263 6.75451 10.316 6.70198 10.316H3.99998C3.89389 10.316 3.79215 10.3581 3.71713 10.4331C3.64212 10.5081 3.59998 10.6099 3.59998 10.716C3.59998 10.822 3.64212 10.9238 3.71713 10.9988C3.79215 11.0738 3.89389 11.116 3.99998 11.116H6.70198C6.75451 11.116 6.80652 11.1056 6.85505 11.0855C6.90358 11.0654 6.94768 11.0359 6.98482 10.9988C7.02196 10.9617 7.05143 10.9176 7.07153 10.869C7.09163 10.8205 7.10198 10.7685 7.10198 10.716ZM16.611 11C16.5738 10.9628 16.5443 10.9187 16.5242 10.8701C16.504 10.8216 16.4937 10.7695 16.4937 10.717C16.4937 10.6644 16.504 10.6123 16.5242 10.5638C16.5443 10.5152 16.5738 10.4711 16.611 10.434L17.969 9.07596C18.044 9.00091 18.1458 8.95874 18.252 8.95874C18.3581 8.95874 18.4599 9.00091 18.535 9.07596C18.61 9.15102 18.6522 9.25282 18.6522 9.35896C18.6522 9.46511 18.61 9.56691 18.535 9.64196L17.46 10.716L18.535 11.791C18.61 11.866 18.6522 11.9678 18.6522 12.074C18.6522 12.1801 18.61 12.2819 18.535 12.357C18.4599 12.432 18.3581 12.4742 18.252 12.4742C18.1458 12.4742 18.044 12.432 17.969 12.357L16.611 10.999V11Z" fill="#485FC7"/>
<path fill-rule="evenodd" clip-rule="evenodd" d="M16.898 10.716C16.898 10.61 16.9402 10.5082 17.0152 10.4332C17.0902 10.3582 17.1919 10.316 17.298 10.316H20.001C20.1071 10.316 20.2088 10.3582 20.2839 10.4332C20.3589 10.5082 20.401 10.61 20.401 10.716C20.401 10.8221 20.3589 10.9239 20.2839 10.9989C20.2088 11.0739 20.1071 11.116 20.001 11.116H17.298C17.1919 11.116 17.0902 11.0739 17.0152 10.9989C16.9402 10.9239 16.898 10.8221 16.898 10.716Z" fill="#485FC7"/>
</svg>

<svg width="24" height="24" fill="none" xmlns="http://www.w3.org/2000/svg"><path fill-rule="evenodd" clip-rule="evenodd" d="M14.104 5.755v.04l.004.122c.02.68.06 1.358.12 2.035.111 1.274.322 2.867.715 4.189.409 1.378.986 1.916 1.462 2.302.042.034.086.07.132.105.203.16.426.337.593.544.23.284.361.626.361 1.093 0 .48-.21.874-.486 1.182-.273.303-.624.538-.953.713-.409.216-.84.386-1.287.506l-.024.007-.007.001h-.002v.001l-.094-.378.093.378a.4.4 0 0 1-.191-.777h.004l.017-.005c.015-.004.039-.01.07-.02a5.413 5.413 0 0 0 1.044-.418c.285-.152.548-.335.735-.543.184-.205.282-.418.282-.647 0-.293-.076-.455-.185-.59-.105-.131-.24-.238-.434-.393l-.171-.137c-.572-.463-1.261-1.13-1.726-2.697-.416-1.399-.632-3.054-.746-4.346a36.521 36.521 0 0 1-.125-2.211v-.045l.4-.006-.4.005a.4.4 0 0 1 .8-.01h-.001Zm-4.397 0v.04a34.202 34.202 0 0 1-.123 2.157c-.112 1.274-.323 2.867-.715 4.189-.41 1.378-.986 1.916-1.463 2.302l-.131.105c-.203.16-.427.337-.594.544-.229.284-.361.626-.361 1.093 0 .48.21.874.486 1.182.273.303.625.538.954.713.409.216.84.386 1.286.506l.024.007.007.001h.002l.001.001.094-.378-.094.378a.4.4 0 1 0 .192-.777h-.004l-.017-.005a5.41 5.41 0 0 1-1.114-.438 2.732 2.732 0 0 1-.736-.543c-.184-.205-.281-.418-.281-.647 0-.293.075-.455.184-.59.106-.131.24-.238.435-.393l.171-.137c.571-.463 1.26-1.13 1.726-2.697.415-1.399.632-3.054.745-4.346.064-.736.106-1.473.126-2.211v-.045l-.4-.006.4.005a.4.4 0 1 0-.8-.01Z" fill="#485FC7"/><path fill-rule="evenodd" clip-rule="evenodd" d="M8.183 16.111a.4.4 0 0 1 .4-.4c.98 0 1.49.51 1.9.92l.012.012c.403.404.708.698 1.347.698.65 0 1.015-.307 1.444-.707l.067-.063c.405-.38.915-.86 1.748-.86a.4.4 0 1 1 0 .8c-.512 0-.806.276-1.256.696l-.013.012c-.445.415-1.01.922-1.99.922s-1.49-.51-1.9-.92l-.013-.012c-.403-.403-.707-.698-1.346-.698a.4.4 0 0 1-.4-.4ZM7.389 11a.401.401 0 0 0 0-.566L6.03 9.075a.4.4 0 1 0-.566.566l1.075 1.074-1.075 1.075a.4.4 0 1 0 .566.566l1.358-1.358.001.002Z" fill="#485FC7"/><path fill-rule="evenodd" clip-rule="evenodd" d="M7.102 10.716a.4.4 0 0 0-.4-.4H4a.4.4 0 1 0 0 .8h2.702a.4.4 0 0 0 .4-.4Zm9.509.284a.4.4 0 0 1 0-.566l1.358-1.358a.4.4 0 1 1 .566.566l-1.075 1.074 1.075 1.075a.4.4 0 0 1-.566.566l-1.358-1.358V11Z" fill="#485FC7"/><path fill-rule="evenodd" clip-rule="evenodd" d="M16.898 10.716a.4.4 0 0 1 .4-.4h2.703a.4.4 0 0 1 0 .8h-2.703a.4.4 0 0 1-.4-.4Z" fill="#485FC7"/></svg>
